Origami/64x64/apps/veracrypt.svg

<svg width="64" height="64" version="1" xmlns="http://www.w3.org/2000/svg">
 <rect transform="matrix(0,-1,-1,0,0,0)" x="-60" y="-60" width="56" height="56" rx="3" ry="3" style="fill:#4f4f4f"/>
 <path d="m10 15 12 40h30l-4-10h-9l-3-9 3-11h9l4-10h-20l-5.984 20.942-6.016-20.942h-10z" style="opacity:.2"/>
 <path d="m7 4c-1.662 0-3 1.338-3 3v1c0-1.662 1.338-3 3-3h50c1.662 0 3 1.338 3 3v-1c0-1.662-1.338-3-3-3h-50z" style="fill:#ffffff;opacity:.1"/>
 <path d="m4 57v1c0 1.662 1.338 3 3 3h50c1.662 0 3-1.338 3-3v-1c0 1.662-1.338 3-3 3h-50c-1.662 0-3-1.338-3-3z" style="opacity:.2"/>
 <path d="m10 14 10-2e-6 10.538 36.67 0.712 3.33h-9.25z" style="fill:#0198c4"/>
 <path d="m34.688 35.01-8.238-0.01-4.45 19h9c4.1138-17.8374 3.6886-18.9894 3.6886-18.9894z" style="fill:#4dbac2"/>
 <path d="m32 14-6 21 5.25 19h20.75l-4-10h-9l-3-9 3-11h9l4-10z" style="fill:#06b788"/>
</svg>

<svg xmlns="http://www.w3.org/2000/svg" width="64" height="64" version="1">
 <rect style="fill:#4f4f4f" width="56" height="56" x="-60" y="-60" rx="3" ry="3" transform="matrix(0,-1,-1,0,0,0)"/>
 <path style="opacity:0.2" d="m 10,15 12,40 30,0 -4,-10 -9,0 -3,-9 3,-11 9,0 L 52,15 32,15 26.016,35.942 20,15 10,15 Z"/>
 <path style="opacity:0.1;fill:#ffffff" d="M 7 4 C 5.338 4 4 5.338 4 7 L 4 8 C 4 6.338 5.338 5 7 5 L 57 5 C 58.662 5 60 6.338 60 8 L 60 7 C 60 5.338 58.662 4 57 4 L 7 4 z"/>
 <path style="opacity:0.2" d="m 4,57 0,1 c 0,1.662 1.338,3 3,3 l 50,0 c 1.662,0 3,-1.338 3,-3 l 0,-1 c 0,1.662 -1.338,3 -3,3 L 7,60 C 5.338,60 4,58.662 4,57 Z"/>
 <path style="fill:#0198c4" d="m 10,14 10,-2e-6 10.538,36.67 0.712,3.33 -9.25,0 z"/>
 <path style="fill:#4dbac2" d="M 34.688,35.01 26.45,35 22,54 l 9,0 c 4.1138,-17.8374 3.6886,-18.9894 3.6886,-18.9894 z"/>
 <path style="fill:#06b788" d="m 32,14 -6,21 5.25,19 20.75,0 -4,-10 -9,0 -3,-9 3,-11 9,0 4,-10 z"/>
</svg>
